X:1
T:Trip to St. George's. JJo6.3
L:1/8
Q:1/2=60
M:2/2
I:linebreak $
K:F
V:1 treble 
V:1
"^(1)" B | AcFB{B} A3 B | A/B/c FA BGGB | A/B/c FB{B} A3 c | defd cA"^(2)"A ::$ %5
 f/e/f/g/ fd g/f/g/a/ ge | f/e/f/g/ fA BGGc | f/e/f/g/ fd g/f/g/a/ ge | f/e/f/g/ fd cAAc :| %9
